dist/img/philosophy.svg

<svg version="1.1" id="Layer_1" xmlns="http://www.w3.org/2000/svg" x="0" y="0" viewBox="0 0 751.1 526.9" xml:space="preserve"><style>.st1{fill:#fff}.st2{fill:#ccc}.st3{fill:#e6e6e6}.st4{fill:#4a5568}.st5{fill:#3f3d56}.st6{fill:#9e616a}.st7{fill:#2f2e41}</style><path d="M563.3 504.1v-.6c.6-21.7 10.7-42.1 27.7-55.7 4.7-3.7 9.9-6.9 15.4-9.3l.5-.2.1.6c1.1 6.8 2.8 13.7 3.5 16.8l5.3-20.6.6-.2c5.5-1.6 11.4.3 15 4.8 3.7 4.5 4.3 10.8 1.5 15.9-1.2 2.3-2.4 4.7-3.6 7-4 7.9-8.2 16.2-14.2 22.6-9.4 9.7-22.6 14.6-36.1 13.5l-15.7 5.4zM402.8 315.9H266.6c-10.2 0-18.5-8.3-18.5-18.5V105.7c.1-46.6 37.8-84.4 84.4-84.4h70.3c10.2 0 18.5 8.3 18.5 18.5v257.6c0 10.3-8.2 18.5-18.5 18.5z" fill="#f2f2f2"/><path class="st1" d="M271.3 187.9c-4.3 0-7.8 3.5-7.8 7.8v43.8c0 4.3 3.5 7.8 7.8 7.8h132.4c4.3 0 7.8-3.5 7.8-7.8v-43.8c0-4.3-3.5-7.8-7.8-7.8H271.3zm132.8-28.4H271.7c-4.7 0-8.4-3.8-8.4-8.4 0-28.8 23.4-52.2 52.2-52.2h88.7c4.7 0 8.4 3.8 8.4 8.4v43.8c-.1 4.7-3.9 8.4-8.5 8.4z"/><path class="st1" d="M461.1 240.6H308.7c-1.9 0-3.4-1.5-3.4-3.4V197c0-1.9 1.5-3.4 3.4-3.4h152.5c1.9 0 3.4 1.5 3.4 3.4v40.2c-.1 1.8-1.6 3.4-3.5 3.4z"/><path class="st2" d="M461.1 241.2H308.7c-2.2 0-4-1.8-4-4V197c0-2.2 1.8-4 4-4h152.5c2.2 0 4 1.8 4 4v40.2c-.1 2.2-1.9 4-4.1 4zm-152.4-46.9c-1.5 0-2.7 1.2-2.7 2.7v40.2c0 1.5 1.2 2.7 2.7 2.7h152.5c1.5 0 2.7-1.2 2.7-2.7V197c0-1.5-1.2-2.7-2.7-2.7H308.7z"/><circle class="st3" cx="321.6" cy="207.2" r="5.5"/><path class="st3" d="M452 221H317.8c-.9 0-1.6-.7-1.6-1.6 0-.9.7-1.6 1.6-1.6H452c.9 0 1.6.7 1.6 1.6 0 .9-.7 1.6-1.6 1.6zm-13.3 6.5H317.8c-.9 0-1.6-.7-1.6-1.6 0-.9.7-1.6 1.6-1.6h120.9c.9 0 1.6.7 1.6 1.6 0 .8-.7 1.6-1.6 1.6z"/><path class="st1" d="M302.7 502.6l-37.3-14.9c-1.7-.7-2.6-2.7-1.9-4.4L320 341.7c.7-1.7 2.7-2.6 4.4-1.9l37.3 14.9c1.7.7 2.6 2.7 1.9 4.4l-56.4 141.6c-.8 1.7-2.7 2.5-4.5 1.9z"/><path class="st2" d="M302.5 503.1l-37.3-14.9c-2.1-.8-3.1-3.2-2.2-5.2l56.4-141.6c.8-2.1 3.2-3.1 5.2-2.2l37.3 14.9c2.1.8 3.1 3.2 2.2 5.2l-56.4 141.6c-.8 2.1-3.2 3.1-5.2 2.2zm-38.4-19.6c-.6 1.4.1 3 1.5 3.6L303 502c1.4.6 3-.1 3.6-1.5L363 358.8c.6-1.4-.1-3-1.5-3.6l-37.3-14.9c-1.4-.6-3 .1-3.6 1.5l-56.5 141.7z"/><circle class="st3" cx="327.8" cy="358.7" r="5.5"/><path class="st3" d="M290.2 485.9c-.8-.3-1.2-1.3-.9-2.1L339 359.1c.3-.8 1.3-1.3 2.1-.9.8.3 1.3 1.3.9 2.1L292.3 485c-.3.8-1.3 1.2-2.1.9zm10.9-10c-.8-.3-1.2-1.3-.9-2.1L345 361.4c.3-.8 1.3-1.3 2.1-.9.8.3 1.3 1.3.9 2.1L303.3 475c-.4.8-1.3 1.2-2.2.9z"/><circle class="st1" cx="394.6" cy="44.8" r="14.4"/><path class="st3" d="M401.7 44.2h-6.5v-6.5c0-.3-.3-.6-.6-.6s-.6.3-.6.6v6.5h-6.5c-.3 0-.6.3-.6.6s.3.6.6.6h6.5v6.5c0 .3.3.6.6.6s.6-.3.6-.6v-6.5h6.5c.3 0 .6-.3.6-.6s-.3-.6-.6-.6z"/><path class="st4" d="M572.5 56.7h-48.7c-6.6 0-11.9-5.3-11.9-11.9 0-6.6 5.3-11.9 11.9-11.9h48.7c6.6 0 11.9 5.3 11.9 11.9 0 6.5-5.3 11.9-11.9 11.9z"/><path transform="rotate(-89.172 453.093 41.414)" class="st5" d="M452.2-5.7h1.8v94.1h-1.8z"/><path class="st5" d="M402.1 45.7c-2.5 0-4.6-2.1-4.6-4.6 0-2.5 2.1-4.6 4.6-4.6s4.6 2.1 4.6 4.6c0 1.8-1 3.4-2.6 4.1-.6.4-1.3.5-2 .5zm0-7.3c-1.5 0-2.8 1.2-2.8 2.8 0 1.5 1.2 2.8 2.8 2.8 1.5 0 2.8-1.2 2.8-2.8 0-.4-.1-.8-.3-1.2-.5-1-1.5-1.6-2.5-1.6z"/><path class="st4" d="M120.1 72.3c0-6.6 5.4-11.9 11.9-11.9h48.7c6.6 0 11.9 5.3 11.9 11.9s-5.3 11.9-11.9 11.9H132c-6.6 0-11.9-5.3-11.9-11.9z"/><path transform="rotate(-.827 251.421 68.99)" class="st5" d="M204.4 68.1h94.1v1.8h-94.1z"/><path class="st5" d="M300.4 72.8c-2.3-1.1-3.2-3.8-2.1-6.1s3.8-3.2 6.1-2.1 3.2 3.8 2.1 6.1c-.8 1.6-2.4 2.6-4.1 2.6-.7 0-1.4-.2-2-.5zm1.1-6.7c-.7.2-1.3.7-1.6 1.4-.7 1.4-.1 3 1.3 3.7 1.4.7 3 .1 3.7-1.3.7-1.4.1-3-1.3-3.7-.6-.3-1.4-.4-2.1-.1z"/><path class="st4" d="M116.4 433.5c0-6.6 5.4-11.9 11.9-11.9H177c6.6 0 11.9 5.3 11.9 11.9 0 6.6-5.3 11.9-11.9 11.9h-48.7c-6.5 0-11.9-5.3-11.9-11.9z"/><path transform="rotate(-.827 247.747 430.177)" class="st5" d="M200.7 429.3h94.1v1.8h-94.1z"/><path class="st5" d="M296.7 434c-2.3-1.1-3.2-3.8-2.1-6.1s3.8-3.2 6.1-2.1 3.2 3.8 2.1 6.1c-.8 1.6-2.4 2.6-4.1 2.6-.6 0-1.3-.2-2-.5zm1.2-6.7c-.7.2-1.3.7-1.6 1.4-.7 1.4-.1 3 1.3 3.7 1.4.7 3 .1 3.7-1.3.7-1.4.1-3-1.3-3.7-.7-.3-1.5-.4-2.1-.1z"/><path class="st4" d="M129.3 205.6c0-6.6 5.4-11.9 11.9-11.9h48.7c6.6 0 11.9 5.3 11.9 11.9s-5.3 11.9-11.9 11.9h-48.7c-6.6 0-11.9-5.3-11.9-11.9z"/><path transform="rotate(-.827 260.611 202.25)" class="st5" d="M213.5 201.3h94.1v1.8h-94.1z"/><path class="st5" d="M309.6 206.1c-2.3-1.1-3.2-3.8-2.1-6.1s3.8-3.2 6.1-2.1 3.2 3.8 2.1 6.1c-.8 1.6-2.4 2.6-4.1 2.6-.7 0-1.4-.2-2-.5zm1.1-6.7c-.7.2-1.3.7-1.6 1.4-.7 1.4-.1 3 1.3 3.7 1.4.7 3 .1 3.7-1.3.7-1.4.1-3-1.3-3.7-.6-.3-1.4-.4-2.1-.1z"/><path class="st4" d="M559.6 133h-48.7c-6.6 0-11.9-5.3-11.9-11.9 0-6.6 5.3-11.9 11.9-11.9h48.7c6.6 0 11.9 5.3 11.9 11.9.1 6.5-5.3 11.9-11.9 11.9z"/><path transform="rotate(-89.172 440.226 117.695)" class="st5" d="M439.3 70.6h1.8v94.1h-1.8z"/><path class="st5" d="M389.2 122c-2.5 0-4.6-2.1-4.6-4.6 0-2.5 2.1-4.6 4.6-4.6 2.5 0 4.6 2.1 4.6 4.6 0 1.8-1 3.4-2.6 4.1-.6.3-1.3.5-2 .5zm0-7.4c-1.5 0-2.8 1.2-2.8 2.8 0 1.5 1.2 2.8 2.8 2.8 1.5 0 2.8-1.2 2.8-2.8 0-.4-.1-.8-.3-1.2-.5-1-1.4-1.6-2.5-1.6z"/><path class="st6" d="M585.7 269.1l-14.1.6c-3.2 8.7-.9 29.7-.9 29.7l-7.4 34.6c-2.4 2.4-2.5 6.4 0 8.8 2.4 2.4 6.4 2.5 8.8 0 1.6-1.6 2.2-3.9 1.6-6.1l15.1-41.5-3.1-26.1z"/><path class="st5" d="M576.2 231.2c8.2-.3 15.2 6.2 15.4 14.4 0 .9 0 1.8-.2 2.8l-1.4 8.8s3.9 30.1-.9 38.3l-9 24.5-14.7-.8 4.1-26.7s1-13.2-2.7-18.8c-2.3-3.4-4.6-16.3-5-27.1-.3-8.2 6.2-15.1 14.4-15.4z"/><path class="st6" d="M566 494.3h-9.2l-4.3-35.5H566z"/><path class="st7" d="M566.3 503.8H538v-.4c0-6.1 4.9-11 11-11l5.2-3.9 9.6 3.9h2.5v11.4z"/><path class="st6" d="M532.8 494.3h-9.2l-4.3-35.5h13.5z"/><path class="st7" d="M533.2 503.8h-28.3v-.4c0-6.1 4.9-11 11-11l5.2-3.9 9.6 3.9h2.5v11.4zm-33.7-106.1c5.5 17.4 7.6 31 11.7 48.2 1.6 3 8.7 28.1 8.7 28.1s10.6 1.2 14.3-1.8c3.7-3-.1-17.6-.1-17.6 2.5-11.1-3.6-28.6-4-39.3.7-4.5-3.2-8.4-3.6-12.7 2.6-2 15.4-33.4 18-42.1-1.3 26.7 10.4 87.7 4.2 107.9-3.6 11.8 4.8 9.2 17.1 9.7 5.5-1.6 3.3-11.1 3.3-11.1s3.7-6.2 3.7-8.7c2.7-11.3 5.9-35.9 5-41.5.4-5.9.6-64.6 5.1-85.1 3-16.4-33.7-20-44.2-23.9-17.6-8.5-14.6 3.6-23.9 14.7-8.7 19.2-14 53.3-15.3 75.2z"/><path class="st5" d="M540.5 225.6l10.7-12 16.9 1.9 10.8 15.1c11.9 2.7 14.1 12.5 12 24.6-4.2 24.1-14.5 41-9.8 52.9 7.1 18.1 3.7 32-13.4 29.5s-56.5-19.3-45.4-30.4c11.1-11.1 1.2-16.9 1.2-16.9l7.8-42.5c-2-10.9-1.7-21.1 9.2-22.2z"/><path class="st6" d="M541.9 263.7l-13.5-4.4c-6 7-11.3 27.5-11.3 27.5L498 316.5c-3.1 1.4-4.5 5.1-3.1 8.3 1.4 3.1 5.1 4.5 8.3 3.1 2-.9 3.4-2.9 3.7-5.1l28.7-33.5 6.3-25.6z"/><path class="st5" d="M546.4 225c7.8 2.6 12 11.1 9.4 18.9-.3.9-.7 1.7-1.1 2.5l-4.4 7.8s-6.9 29.5-14.3 35.5l-17.1 19.7-13.5-5.9 13.2-23.6s5.6-12 4.1-18.6c-1-4 1.4-16.9 4.8-27.1 2.6-7.7 11.1-11.9 18.9-9.2z"/><circle id="fe5d9414-b808-43bb-a4dc-97fa5cac342b" cx="563.7" cy="193.5" r="17.4" fill="#a0616a"/><path class="st7" d="M548.6 177.8c.3-1.4.8-2.8 1.7-4 1.7-2 4.7-2.3 6.8-.6.1.1.3.2.4.4-.3-.8-.4-1.6-.2-2.5 1.3.6 2.6 1 4 1.2l-3.1-3.2c6.4-2.8 11.6-2.7 15.4 1.4 1.1 1.2 3.3.4 4.5 1.6 1.2 1.2 1.2 3.8-.2 4.5 2.9-1.1 6.3.5 8.2 3.2 1.9 2.7 2.6 6.2 2.8 9.6.2 4.4-.7 9.1-3.4 12.4-1.8 2.1-4.2 3.5-6.1 5.4l-.1.1c-4.4 4.5-10.8 6.3-16.8 4.7-.3-.1-.7-.2-1-.3-1.7.8-3.7-.3-4.8-1.9-1.1-1.8-1.3-4.1-1.4-6.2-.1-2.8.1-5.7.5-8.5.5-3.2.9-7.2-1.6-8.8-2-1.2-4.4 0-6.3 1.2-.3-3.4-.1-6.6.7-9.7z"/><path d="M719.6 505.3l-688.1.3c-.6 0-1.1-.5-1.1-1.1 0-.6.5-1.1 1.1-1.1l688.1-.3c.6 0 1.1.5 1.1 1.1s-.5 1.1-1.1 1.1z" fill="#cacaca"/></svg>

<svg width="752" height="527" viewBox="0 0 752 527" fill="none" xmlns="http://www.w3.org/2000/svg">
<path d="M563.3 504.1V503.5C563.9 481.8 574 461.4 591 447.8C595.7 444.1 600.9 440.9 606.4 438.5L606.9 438.3L607 438.9C608.1 445.7 609.8 452.6 610.5 455.7L615.8 435.1L616.4 434.9C621.9 433.3 627.8 435.2 631.4 439.7C635.1 444.2 635.7 450.5 632.9 455.6C631.7 457.9 630.5 460.3 629.3 462.6C625.3 470.5 621.1 478.8 615.1 485.2C605.7 494.9 592.5 499.8 579 498.7L563.3 504.1ZM402.8 315.9H266.6C256.4 315.9 248.1 307.6 248.1 297.4V105.7C248.2 59.1 285.9 21.3 332.5 21.3H402.8C413 21.3 421.3 29.6 421.3 39.8V297.4C421.3 307.7 413.1 315.9 402.8 315.9Z" fill="#F2F2F2"/>
<path d="M271.3 187.9C267 187.9 263.5 191.4 263.5 195.7V239.5C263.5 243.8 267 247.3 271.3 247.3H403.7C408 247.3 411.5 243.8 411.5 239.5V195.7C411.5 191.4 408 187.9 403.7 187.9H271.3ZM404.1 159.5H271.7C267 159.5 263.3 155.7 263.3 151.1C263.3 122.3 286.7 98.9 315.5 98.9H404.2C408.9 98.9 412.6 102.7 412.6 107.3V151.1C412.5 155.8 408.7 159.5 404.1 159.5Z" fill="white"/>
<path d="M461.1 240.6H308.7C306.8 240.6 305.3 239.1 305.3 237.2V197C305.3 195.1 306.8 193.6 308.7 193.6H461.2C463.1 193.6 464.6 195.1 464.6 197V237.2C464.5 239 463 240.6 461.1 240.6Z" fill="white"/>
<path d="M461.1 241.2H308.7C306.5 241.2 304.7 239.4 304.7 237.2V197C304.7 194.8 306.5 193 308.7 193H461.2C463.4 193 465.2 194.8 465.2 197V237.2C465.1 239.4 463.3 241.2 461.1 241.2ZM308.7 194.3C307.2 194.3 306 195.5 306 197V237.2C306 238.7 307.2 239.9 308.7 239.9H461.2C462.7 239.9 463.9 238.7 463.9 237.2V197C463.9 195.5 462.7 194.3 461.2 194.3H308.7Z" fill="#CCCCCC"/>
<path d="M321.6 212.7C324.638 212.7 327.1 210.238 327.1 207.2C327.1 204.162 324.638 201.7 321.6 201.7C318.563 201.7 316.1 204.162 316.1 207.2C316.1 210.238 318.563 212.7 321.6 212.7Z" fill="#E6E6E6"/>
<path d="M452 221H317.8C316.9 221 316.2 220.3 316.2 219.4C316.2 218.5 316.9 217.8 317.8 217.8H452C452.9 217.8 453.6 218.5 453.6 219.4C453.6 220.3 452.9 221 452 221ZM438.7 227.5H317.8C316.9 227.5 316.2 226.8 316.2 225.9C316.2 225 316.9 224.3 317.8 224.3H438.7C439.6 224.3 440.3 225 440.3 225.9C440.3 226.7 439.6 227.5 438.7 227.5Z" fill="#E6E6E6"/>
<path d="M302.7 502.6L265.4 487.7C263.7 487 262.8 485 263.5 483.3L320 341.7C320.7 340 322.7 339.1 324.4 339.8L361.7 354.7C363.4 355.4 364.3 357.4 363.6 359.1L307.2 500.7C306.4 502.4 304.5 503.2 302.7 502.6Z" fill="white"/>
<path d="M302.5 503.1L265.2 488.2C263.1 487.4 262.1 485 263 483L319.4 341.4C320.2 339.3 322.6 338.3 324.6 339.2L361.9 354.1C364 354.9 365 357.3 364.1 359.3L307.7 500.9C306.9 503 304.5 504 302.5 503.1ZM264.1 483.5C263.5 484.9 264.2 486.5 265.6 487.1L303 502C304.4 502.6 306 501.9 306.6 500.5L363 358.8C363.6 357.4 362.9 355.8 361.5 355.2L324.2 340.3C322.8 339.7 321.2 340.4 320.6 341.8L264.1 483.5Z" fill="#CCCCCC"/>
<path d="M327.8 364.2C330.837 364.2 333.3 361.738 333.3 358.7C333.3 355.662 330.837 353.2 327.8 353.2C324.762 353.2 322.3 355.662 322.3 358.7C322.3 361.738 324.762 364.2 327.8 364.2Z" fill="#E6E6E6"/>
<path d="M290.2 485.9C289.4 485.6 289 484.6 289.3 483.8L339 359.1C339.3 358.3 340.3 357.8 341.1 358.2C341.9 358.5 342.4 359.5 342 360.3L292.3 485C292 485.8 291 486.2 290.2 485.9ZM301.1 475.9C300.3 475.6 299.9 474.6 300.2 473.8L345 361.4C345.3 360.6 346.3 360.1 347.1 360.5C347.9 360.8 348.4 361.8 348 362.6L303.3 475C302.9 475.8 302 476.2 301.1 475.9Z" fill="#E6E6E6"/>
<path d="M394.6 59.2C402.553 59.2 409 52.7529 409 44.8C409 36.8471 402.553 30.4 394.6 30.4C386.647 30.4 380.2 36.8471 380.2 44.8C380.2 52.7529 386.647 59.2 394.6 59.2Z" fill="white"/>
<path d="M401.7 44.2H395.2V37.7C395.2 37.4 394.9 37.1 394.6 37.1C394.3 37.1 394 37.4 394 37.7V44.2H387.5C387.2 44.2 386.9 44.5 386.9 44.8C386.9 45.1 387.2 45.4 387.5 45.4H394V51.9C394 52.2 394.3 52.5 394.6 52.5C394.9 52.5 395.2 52.2 395.2 51.9V45.4H401.7C402 45.4 402.3 45.1 402.3 44.8C402.3 44.5 402 44.2 401.7 44.2Z" fill="#E6E6E6"/>
<path d="M572.5 56.7H523.8C517.2 56.7 511.9 51.4 511.9 44.8C511.9 38.2 517.2 32.9 523.8 32.9H572.5C579.1 32.9 584.4 38.2 584.4 44.8C584.4 51.3 579.1 56.7 572.5 56.7Z" fill="#4A5568"/>
<path d="M405.971 41.6261L405.997 39.8263L500.087 41.1861L500.061 42.9859L405.971 41.6261Z" fill="#3F3D56"/>
<path d="M402.1 45.7C399.6 45.7 397.5 43.6 397.5 41.1C397.5 38.6 399.6 36.5 402.1 36.5C404.6 36.5 406.7 38.6 406.7 41.1C406.7 42.9 405.7 44.5 404.1 45.2C403.5 45.6 402.8 45.7 402.1 45.7ZM402.1 38.4C400.6 38.4 399.3 39.6 399.3 41.2C399.3 42.7 400.5 44 402.1 44C403.6 44 404.9 42.8 404.9 41.2C404.9 40.8 404.8 40.4 404.6 40C404.1 39 403.1 38.4 402.1 38.4Z" fill="#3F3D56"/>
<path d="M120.1 72.3C120.1 65.7 125.5 60.4 132 60.4H180.7C187.3 60.4 192.6 65.7 192.6 72.3C192.6 78.9 187.3 84.2 180.7 84.2H132C125.4 84.2 120.1 78.9 120.1 72.3Z" fill="#4A5568"/>
<path d="M204.392 68.7788L298.482 67.4206L298.508 69.2204L204.418 70.5786L204.392 68.7788Z" fill="#3F3D56"/>
<path d="M300.4 72.8C298.1 71.7 297.2 69 298.3 66.7C299.4 64.4 302.1 63.5 304.4 64.6C306.7 65.7 307.6 68.4 306.5 70.7C305.7 72.3 304.1 73.3 302.4 73.3C301.7 73.3 301 73.1 300.4 72.8ZM301.5 66.1C300.8 66.3 300.2 66.8 299.9 67.5C299.2 68.9 299.8 70.5 301.2 71.2C302.6 71.9 304.2 71.3 304.9 69.9C305.6 68.5 305 66.9 303.6 66.2C303 65.9 302.2 65.8 301.5 66.1Z" fill="#3F3D56"/>
<path d="M116.4 433.5C116.4 426.9 121.8 421.6 128.3 421.6H177C183.6 421.6 188.9 426.9 188.9 433.5C188.9 440.1 183.6 445.4 177 445.4H128.3C121.8 445.4 116.4 440.1 116.4 433.5Z" fill="#4A5568"/>
<path d="M200.692 429.979L294.783 428.621L294.809 430.421L200.718 431.779L200.692 429.979Z" fill="#3F3D56"/>
<path d="M296.7 434C294.4 432.9 293.5 430.2 294.6 427.9C295.7 425.6 298.4 424.7 300.7 425.8C303 426.9 303.9 429.6 302.8 431.9C302 433.5 300.4 434.5 298.7 434.5C298.1 434.5 297.4 434.3 296.7 434ZM297.9 427.3C297.2 427.5 296.6 428 296.3 428.7C295.6 430.1 296.2 431.7 297.6 432.4C299 433.1 300.6 432.5 301.3 431.1C302 429.7 301.4 428.1 300 427.4C299.3 427.1 298.5 427 297.9 427.3Z" fill="#3F3D56"/>
<path d="M129.3 205.6C129.3 199 134.7 193.7 141.2 193.7H189.9C196.5 193.7 201.8 199 201.8 205.6C201.8 212.2 196.5 217.5 189.9 217.5H141.2C134.6 217.5 129.3 212.2 129.3 205.6Z" fill="#4A5568"/>
<path d="M213.491 201.98L307.581 200.622L307.607 202.422L213.517 203.78L213.491 201.98Z" fill="#3F3D56"/>
<path d="M309.6 206.1C307.3 205 306.4 202.3 307.5 200C308.6 197.7 311.3 196.8 313.6 197.9C315.9 199 316.8 201.7 315.7 204C314.9 205.6 313.3 206.6 311.6 206.6C310.9 206.6 310.2 206.4 309.6 206.1ZM310.7 199.4C310 199.6 309.4 200.1 309.1 200.8C308.4 202.2 309 203.8 310.4 204.5C311.8 205.2 313.4 204.6 314.1 203.2C314.8 201.8 314.2 200.2 312.8 199.5C312.2 199.2 311.4 199.1 310.7 199.4Z" fill="#3F3D56"/>
<path d="M559.6 133H510.9C504.3 133 499 127.7 499 121.1C499 114.5 504.3 109.2 510.9 109.2H559.6C566.2 109.2 571.5 114.5 571.5 121.1C571.6 127.6 566.2 133 559.6 133Z" fill="#4A5568"/>
<path d="M393.123 117.94L393.149 116.14L487.239 117.5L487.213 119.3L393.123 117.94Z" fill="#3F3D56"/>
<path d="M389.2 122C386.7 122 384.6 119.9 384.6 117.4C384.6 114.9 386.7 112.8 389.2 112.8C391.7 112.8 393.8 114.9 393.8 117.4C393.8 119.2 392.8 120.8 391.2 121.5C390.6 121.8 389.9 122 389.2 122ZM389.2 114.6C387.7 114.6 386.4 115.8 386.4 117.4C386.4 118.9 387.6 120.2 389.2 120.2C390.7 120.2 392 119 392 117.4C392 117 391.9 116.6 391.7 116.2C391.2 115.2 390.3 114.6 389.2 114.6Z" fill="#3F3D56"/>
<path d="M585.7 269.1L571.6 269.7C568.4 278.4 570.7 299.4 570.7 299.4L563.3 334C560.9 336.4 560.8 340.4 563.3 342.8C565.7 345.2 569.7 345.3 572.1 342.8C573.7 341.2 574.3 338.9 573.7 336.7L588.8 295.2L585.7 269.1Z" fill="#9E616A"/>
<path d="M576.2 231.2C584.4 230.9 591.4 237.4 591.6 245.6C591.6 246.5 591.6 247.4 591.4 248.4L590 257.2C590 257.2 593.9 287.3 589.1 295.5L580.1 320L565.4 319.2L569.5 292.5C569.5 292.5 570.5 279.3 566.8 273.7C564.5 270.3 562.2 257.4 561.8 246.6C561.5 238.4 568 231.5 576.2 231.2Z" fill="#3F3D56"/>
<path d="M566 494.3H556.8L552.5 458.8H566V494.3Z" fill="#9E616A"/>
<path d="M566.3 503.8H538V503.4C538 497.3 542.9 492.4 549 492.4L554.2 488.5L563.8 492.4H566.3V503.8Z" fill="#2F2E41"/>
<path d="M532.8 494.3H523.6L519.3 458.8H532.8V494.3Z" fill="#9E616A"/>
<path d="M533.2 503.8H504.9V503.4C504.9 497.3 509.8 492.4 515.9 492.4L521.1 488.5L530.7 492.4H533.2V503.8ZM499.5 397.7C505 415.1 507.1 428.7 511.2 445.9C512.8 448.9 519.9 474 519.9 474C519.9 474 530.5 475.2 534.2 472.2C537.9 469.2 534.1 454.6 534.1 454.6C536.6 443.5 530.5 426 530.1 415.3C530.8 410.8 526.9 406.9 526.5 402.6C529.1 400.6 541.9 369.2 544.5 360.5C543.2 387.2 554.9 448.2 548.7 468.4C545.1 480.2 553.5 477.6 565.8 478.1C571.3 476.5 569.1 467 569.1 467C569.1 467 572.8 460.8 572.8 458.3C575.5 447 578.7 422.4 577.8 416.8C578.2 410.9 578.4 352.2 582.9 331.7C585.9 315.3 549.2 311.7 538.7 307.8C521.1 299.3 524.1 311.4 514.8 322.5C506.1 341.7 500.8 375.8 499.5 397.7Z" fill="#2F2E41"/>
<path d="M540.5 225.6L551.2 213.6L568.1 215.5L578.9 230.6C590.8 233.3 593 243.1 590.9 255.2C586.7 279.3 576.4 296.2 581.1 308.1C588.2 326.2 584.8 340.1 567.7 337.6C550.6 335.1 511.2 318.3 522.3 307.2C533.4 296.1 523.5 290.3 523.5 290.3L531.3 247.8C529.3 236.9 529.6 226.7 540.5 225.6Z" fill="#3F3D56"/>
<path d="M541.9 263.7L528.4 259.3C522.4 266.3 517.1 286.8 517.1 286.8L498 316.5C494.9 317.9 493.5 321.6 494.9 324.8C496.3 327.9 500 329.3 503.2 327.9C505.2 327 506.6 325 506.9 322.8L535.6 289.3L541.9 263.7Z" fill="#9E616A"/>
<path d="M546.4 225C554.2 227.6 558.4 236.1 555.8 243.9C555.5 244.8 555.1 245.6 554.7 246.4L550.3 254.2C550.3 254.2 543.4 283.7 536 289.7L518.9 309.4L505.4 303.5L518.6 279.9C518.6 279.9 524.2 267.9 522.7 261.3C521.7 257.3 524.1 244.4 527.5 234.2C530.1 226.5 538.6 222.3 546.4 225Z" fill="#3F3D56"/>
<path d="M563.7 210.9C573.31 210.9 581.1 203.11 581.1 193.5C581.1 183.89 573.31 176.1 563.7 176.1C554.09 176.1 546.3 183.89 546.3 193.5C546.3 203.11 554.09 210.9 563.7 210.9Z" fill="#A0616A"/>
<path d="M548.6 177.8C548.9 176.4 549.4 175 550.3 173.8C552 171.8 555 171.5 557.1 173.2C557.2 173.3 557.4 173.4 557.5 173.6C557.2 172.8 557.1 172 557.3 171.1C558.6 171.7 559.9 172.1 561.3 172.3L558.2 169.1C564.6 166.3 569.8 166.4 573.6 170.5C574.7 171.7 576.9 170.9 578.1 172.1C579.3 173.3 579.3 175.9 577.9 176.6C580.8 175.5 584.2 177.1 586.1 179.8C588 182.5 588.7 186 588.9 189.4C589.1 193.8 588.2 198.5 585.5 201.8C583.7 203.9 581.3 205.3 579.4 207.2L579.3 207.3C574.9 211.8 568.5 213.6 562.5 212C562.2 211.9 561.8 211.8 561.5 211.7C559.8 212.5 557.8 211.4 556.7 209.8C555.6 208 555.4 205.7 555.3 203.6C555.2 200.8 555.4 197.9 555.8 195.1C556.3 191.9 556.7 187.9 554.2 186.3C552.2 185.1 549.8 186.3 547.9 187.5C547.6 184.1 547.8 180.9 548.6 177.8Z" fill="#2F2E41"/>
</svg>
